X:1
T: John of Badenyon
T: Old Time Wedding Reel #1, Cape Breton
C: Dunlay/Greenberg Collection
N: Arr. T. Traub 7-10-2003
R: reel
M: 4/4
K: Am
L: 1/8
[| "Am"AGEG AGEA | "Am"cdcA "G"G2 GB | "Am"A/A/A cd edcG | "Am"ABcd "Em"e2eg | "Am"abag "G"egdB |
"C"cAGE c2cd | "C"edcA GEcE | "Dm"D/D/D  "Em"EG "Am"A4 |]| "Am"ageg agea | "G"gede g2gb |
"Am"agea gbed | "Am"cAcd "Em"e2eg | "Am"abag "G"egdB | "C"cAGE c2cd | "C"edcA GEcE | "Dm"D/D/D "Em"EG "Am"A4 |]
